public/storage.svg

<svg width="46" height="69" viewBox="0 0 46 69" fill="none" xmlns="http://www.w3.org/2000/svg">
<path d="M9.94946 64.6391C9.45333 64.6443 8.9645 64.5192 8.53193 64.2762C7.45104 63.6664 6.85645 62.3792 6.85645 60.6538V26.1389C6.92772 24.3792 7.41074 22.6607 8.26664 21.1215C9.12255 19.5823 10.3275 18.2652 11.7848 17.2762L33.74 4.08221C35.1364 3.24237 36.4821 3.10705 37.5274 3.69824C38.6066 4.30973 39.202 5.59529 39.202 7.32065V41.8271C39.1309 43.5871 38.6481 45.3059 37.7921 46.8454C36.9362 48.3849 35.7311 49.7023 34.2737 50.6915L12.3193 63.8855C11.6118 64.3459 10.7929 64.6063 9.94946 64.6391ZM36.1082 4.37062C35.4542 4.40209 34.8206 4.6086 34.2737 4.96858L12.3184 18.1625C11.0159 19.0616 9.9386 20.2492 9.17033 21.6329C8.40207 23.0165 7.96362 24.5589 7.88914 26.1398V60.6555C7.88914 61.9918 8.29678 62.9585 9.03937 63.3797C9.48882 63.5667 9.97991 63.6309 10.4623 63.5656C10.9447 63.5004 11.4011 63.3081 11.7848 63.0084L33.7409 49.8111C35.0432 48.9121 36.1205 47.7246 36.8887 46.3411C37.657 44.9576 38.0955 43.4154 38.1702 41.8347V7.31981C38.1702 5.9835 37.7608 5.01679 37.0199 4.59729C36.7411 4.44306 36.4268 4.36435 36.1082 4.36893V4.37062Z" fill="#0D034A"/>
<path opacity="0.43" d="M3.60566 61.2997C3.10953 61.305 2.62074 61.1799 2.18815 60.9369C1.10726 60.3271 0.512695 59.0398 0.512695 57.3145V22.803C0.584227 21.0431 1.06749 19.3246 1.92369 17.7853C2.7799 16.2461 3.98515 14.9291 5.44266 13.9402L27.398 0.746279C28.7952 -0.0935665 30.1408 -0.228891 31.1853 0.362299C32.2645 0.972097 32.8591 2.25936 32.8591 3.98387V38.4979C32.7876 40.257 32.3048 41.9748 31.4494 43.5135C30.594 45.0522 29.3897 46.369 27.9333 47.3581L5.97803 60.5521C5.26925 61.0109 4.44945 61.2693 3.60566 61.2997ZM29.7661 1.0313C29.1121 1.0626 28.4785 1.26913 27.9316 1.62926L5.97635 14.8232C4.67407 15.7223 3.59687 16.9098 2.82862 18.2933C2.06037 19.6768 1.6218 21.2189 1.54706 22.7996V57.312C1.54706 58.6483 1.9564 59.6167 2.6973 60.0362C3.14693 60.223 3.63811 60.287 4.12061 60.2218C4.60311 60.1565 5.05963 59.9644 5.44351 59.6649L27.3988 46.4709C28.7014 45.5718 29.7789 44.3841 30.5472 43.0002C31.3154 41.6164 31.7538 40.0739 31.8281 38.4928V3.98133C31.8281 2.64502 31.4204 1.67662 30.6779 1.25712C30.3986 1.10352 30.0848 1.02567 29.7661 1.0313Z" fill="#0D034A"/>
<path d="M18.0038 21.7397C16.6263 22.6863 15.4869 23.9392 14.675 25.4002C13.863 26.8612 13.4007 28.4904 13.3242 30.1601V64.6673C13.3242 67.773 15.4115 69.0205 18.0038 67.4626L39.9592 54.2687C41.3367 53.3221 42.476 52.0691 43.2878 50.6081C44.0996 49.1471 44.5618 47.5179 44.6379 45.8482V11.341C44.6379 8.23531 42.5506 6.9878 39.9592 8.5457L18.0038 21.7397Z" fill="white"/>
<path d="M15.8953 69.0009C15.3408 69.0059 14.7946 68.8656 14.3111 68.5941C13.1203 67.9175 12.4648 66.5296 12.4648 64.6774V30.1625C12.539 28.3447 13.0386 26.5696 13.9233 24.9798C14.808 23.3901 16.0532 22.03 17.5589 21.0088L39.5142 7.81485C41.0197 6.91072 42.4854 6.77202 43.6416 7.42664C44.8324 8.10325 45.4879 9.49115 45.4879 11.3434V45.8506C45.4138 47.6683 44.9145 49.4432 44.0299 51.0329C43.1454 52.6225 41.9003 53.9825 40.3947 55.0035L18.4394 68.1975C17.6798 68.6907 16.8004 68.9684 15.8953 69.0009ZM18.4402 22.4779C17.1859 23.345 16.1486 24.4898 15.409 25.8232C14.6694 27.1567 14.2474 28.6428 14.1758 30.1659V64.6731C14.1758 65.8648 14.5327 66.7495 15.1544 67.1013C15.5523 67.2559 15.9838 67.3036 16.4058 67.2394C16.8278 67.1753 17.2257 67.0017 17.5597 66.736L39.515 53.542C40.7693 52.6751 41.8066 51.5305 42.5463 50.1972C43.2859 48.8639 43.7079 47.3779 43.7794 45.8549V11.3476C43.7794 10.1559 43.4225 9.27125 42.8009 8.91942C42.4031 8.76489 41.9718 8.71731 41.5499 8.78142C41.128 8.84553 40.7303 9.01908 40.3964 9.28479L18.441 22.4787L18.4402 22.4779Z" fill="#27292B"/>
<path d="M38.7938 33.6299C38.7938 36.3051 38.7854 38.9836 38.7989 41.6529C38.7871 42.4562 38.5439 43.239 38.0986 43.9077C37.6803 44.5643 37.1876 45.1705 36.6304 45.7142C35.7392 46.5983 34.7652 47.3947 33.7218 48.0925C32.1508 49.1712 30.464 50.0705 28.6928 50.7736C27.3032 51.3621 25.8307 51.7313 24.3278 51.868C23.7176 51.9274 23.1017 51.8601 22.5187 51.6701C22.1353 51.5479 21.8087 51.2918 21.5985 50.9487C21.4408 50.6691 21.3624 50.3518 21.3719 50.031C21.3719 44.551 21.3719 39.0716 21.3719 33.5927C21.4014 32.8849 21.6236 32.1985 22.0146 31.6077C22.4638 30.8835 23.0038 30.2198 23.6216 29.6328C24.5356 28.7462 25.531 27.9474 26.5945 27.2469C27.984 26.3071 29.4628 25.5065 31.0094 24.8568C32.5412 24.1695 34.1745 23.7359 35.8455 23.5729C36.5076 23.4981 37.1781 23.5851 37.7992 23.8267C37.9948 23.9045 38.1726 24.0214 38.3216 24.1701C38.4706 24.3189 38.5879 24.4964 38.6661 24.6919C38.7554 24.9322 38.7979 25.1875 38.7913 25.4438C38.793 28.1728 38.7938 30.9015 38.7938 33.6299ZM30.0824 32.6108V32.6438C30.8318 32.2327 31.5828 31.842 32.3304 31.4056C33.4393 30.76 34.4848 30.0113 35.453 29.1694C36.1008 28.6231 36.6859 28.0067 37.1978 27.3315C37.4228 27.0391 37.6071 26.7176 37.7459 26.3758C37.8214 26.2277 37.8607 26.0638 37.8607 25.8975C37.8607 25.7313 37.8214 25.5674 37.7459 25.4192C37.6872 25.3081 37.6014 25.2135 37.4964 25.1444C37.2662 25.0103 37.0194 24.9068 36.7623 24.8365C35.9946 24.7022 35.2076 24.7235 34.4483 24.8991C33.214 25.1429 32.0109 25.5238 30.8613 26.035C29.0706 26.7967 27.3764 27.7676 25.8138 28.9275C24.9415 29.5604 24.1386 30.2839 23.4186 31.0859C23.076 31.4593 22.7824 31.8748 22.5449 32.3224C22.2201 32.9609 22.2244 33.4219 22.5534 33.7526C22.7507 33.9363 22.9942 34.0628 23.2579 34.1188C23.9282 34.2639 24.6204 34.276 25.2954 34.1543C26.9567 33.8733 28.5686 33.3531 30.0807 32.6099L30.0824 32.6108ZM22.3064 35.1481V35.3088C22.3064 36.3668 22.3123 37.4232 22.3064 38.4855C22.2929 38.632 22.3131 38.7797 22.3654 38.9172C22.4177 39.0547 22.5008 39.1784 22.6083 39.2788C22.8226 39.4516 23.0768 39.5679 23.3476 39.6171C24.153 39.7587 24.9786 39.7377 25.7757 39.5554C27.0421 39.2999 28.2757 38.9027 29.4532 38.3713C31.2075 37.6111 32.8669 36.6483 34.3975 35.5025C35.2487 34.8806 36.033 34.172 36.7377 33.3881C37.058 33.0368 37.3378 32.6507 37.5717 32.237C37.7464 31.9529 37.8467 31.6295 37.8635 31.2965C37.8635 30.1857 37.8635 29.0741 37.8635 27.9616C37.8635 27.9252 37.8584 27.8906 37.855 27.8474C37.8331 27.8711 37.8229 27.8796 37.8144 27.8914C37.2799 28.6169 36.6685 29.2824 35.9909 29.8764C34.6302 31.0807 33.1348 32.1237 31.5346 32.9846C30.0069 33.8452 28.3816 34.5195 26.6934 34.9933C25.2831 35.5051 23.7472 35.5587 22.3047 35.1464L22.3064 35.1481ZM22.3064 46.1202V46.2834C22.3064 47.333 22.314 48.3793 22.3064 49.4339C22.2837 49.5924 22.3041 49.7541 22.3654 49.902C22.4267 50.0499 22.5267 50.1786 22.6549 50.2746C22.8749 50.4137 23.1152 50.5181 23.367 50.5842C24.1904 50.735 25.0363 50.7102 25.8494 50.5114C27.049 50.2648 28.2186 49.89 29.3381 49.3933C31.2186 48.5906 32.9909 47.5549 34.6132 46.3105C35.4321 45.6969 36.1829 44.9975 36.8528 44.224C37.1549 43.8808 37.4155 43.5033 37.6292 43.0991C37.7814 42.8185 37.8627 42.5049 37.866 42.1857C37.8593 41.1082 37.866 40.0256 37.866 38.9447C37.866 38.9024 37.866 38.8602 37.8593 38.8086C37.8347 38.8382 37.8221 38.8525 37.8111 38.8678C37.3861 39.4489 36.9081 39.9894 36.3834 40.4823C35.0914 41.6939 33.6605 42.7483 32.1207 43.6235C31.0188 44.2697 29.8685 44.8296 28.6801 45.2981C27.4823 45.7917 26.2286 46.1368 24.9469 46.3257C24.0803 46.4895 23.1857 46.4177 22.3563 46.1177C22.3403 46.1134 22.3292 46.1177 22.3047 46.1185L22.3064 46.1202ZM22.3064 40.6286V40.7919C22.3064 41.8415 22.3149 42.8868 22.3064 43.9424C22.289 44.1029 22.3117 44.2652 22.3723 44.4149C22.433 44.5645 22.5298 44.6968 22.654 44.8C22.9438 45.0022 23.2815 45.125 23.6334 45.156C24.3937 45.2363 25.162 45.1894 25.9069 45.0173C27.4115 44.6901 28.8702 44.1788 30.2499 43.495C31.6259 42.84 32.9379 42.0586 34.1692 41.1606C35.0292 40.5467 35.8272 39.8501 36.5517 39.0809C36.939 38.678 37.2771 38.2305 37.559 37.748C37.7581 37.419 37.8648 37.0423 37.8677 36.6578C37.8567 35.6006 37.8677 34.5341 37.8677 33.4709V33.3145C37.762 33.4549 37.6782 33.5682 37.592 33.6782C36.9252 34.5091 36.1685 35.2636 35.3355 35.9279C33.7546 37.2103 32.0242 38.2965 30.1822 39.1629C28.9955 39.7432 27.754 40.2042 26.476 40.539C25.1284 41.0004 23.6706 41.0312 22.3047 40.627L22.3064 40.6286Z" fill="#27292B" stroke="#27292B"/>
</svg>

<svg xmlns="http://www.w3.org/2000/svg" width="46" height="69" fill="none" viewBox="0 0 46 69"><path fill="#0d034a" d="M9.95 64.64a2.83 2.83 0 0 1-1.418-.364c-1.081-.61-1.676-1.897-1.676-3.622V26.139a11.26 11.26 0 0 1 4.929-8.863L33.74 4.082c1.396-.84 2.742-.975 3.787-.384 1.08.612 1.675 1.897 1.675 3.623v34.506a11.26 11.26 0 0 1-4.928 8.865L12.319 63.886c-.707.46-1.526.72-2.37.753M36.107 4.37a3.66 3.66 0 0 0-1.834.599L12.318 18.163A10.28 10.28 0 0 0 7.89 26.14v34.516c0 1.336.408 2.303 1.15 2.724a2.75 2.75 0 0 0 2.746-.372L33.74 49.811a10.28 10.28 0 0 0 4.43-7.976V7.32c0-1.336-.41-2.303-1.151-2.723a1.83 1.83 0 0 0-.912-.228z"/><path fill="#0d034a" d="M3.606 61.3a2.83 2.83 0 0 1-1.418-.363c-1.08-.61-1.675-1.897-1.675-3.622V22.803a11.26 11.26 0 0 1 4.93-8.863L27.398.746c1.397-.84 2.743-.975 3.787-.384 1.08.61 1.674 1.897 1.674 3.622v34.514a11.26 11.26 0 0 1-4.926 8.86L5.978 60.552a4.7 4.7 0 0 1-2.372.748M29.766 1.03a3.65 3.65 0 0 0-1.834.598L5.976 14.823A10.28 10.28 0 0 0 1.547 22.8v34.512c0 1.336.41 2.305 1.15 2.724a2.75 2.75 0 0 0 2.747-.371L27.399 46.47a10.28 10.28 0 0 0 4.43-7.978V3.98c0-1.336-.409-2.304-1.151-2.724a1.8 1.8 0 0 0-.912-.226" opacity=".43"/><path fill="#fff" d="M18.004 21.74a10.82 10.82 0 0 0-4.68 8.42v34.507c0 3.106 2.088 4.353 4.68 2.796l21.955-13.194a10.82 10.82 0 0 0 4.679-8.42V11.34c0-3.106-2.087-4.353-4.679-2.795z"/><path fill="#27292b" d="M15.895 69a3.2 3.2 0 0 1-1.584-.406c-1.19-.676-1.846-2.064-1.846-3.917V30.162a11.63 11.63 0 0 1 5.094-9.153L39.514 7.815c1.506-.904 2.971-1.043 4.128-.388 1.19.676 1.846 2.064 1.846 3.916v34.508a11.63 11.63 0 0 1-5.093 9.153L18.439 68.198c-.76.493-1.639.77-2.544.803m2.545-46.522a9.91 9.91 0 0 0-4.264 7.688v34.507c0 1.192.357 2.076.978 2.428a2.44 2.44 0 0 0 2.406-.365l21.955-13.194a9.91 9.91 0 0 0 4.264-7.687V11.348c0-1.192-.357-2.077-.978-2.429a2.44 2.44 0 0 0-2.405.366z"/><path fill="#27292b" stroke="#27292b" d="M38.794 33.63c0 2.675-.009 5.354.005 8.023a4.2 4.2 0 0 1-.7 2.255 10 10 0 0 1-1.469 1.806 19.6 19.6 0 0 1-2.908 2.379 25.5 25.5 0 0 1-5.03 2.68 14.6 14.6 0 0 1-4.364 1.095 4.45 4.45 0 0 1-1.81-.198 1.68 1.68 0 0 1-.92-.721 1.76 1.76 0 0 1-.226-.918V33.593a3.9 3.9 0 0 1 .643-1.985c.449-.724.989-1.388 1.607-1.975a20.3 20.3 0 0 1 2.973-2.386c1.389-.94 2.868-1.74 4.414-2.39a15.5 15.5 0 0 1 4.837-1.284 4.1 4.1 0 0 1 1.953.254 1.55 1.55 0 0 1 .867.865c.09.24.132.495.125.752zm-8.712-1.02v.034c.75-.411 1.5-.802 2.248-1.238a20.4 20.4 0 0 0 3.123-2.237 11.5 11.5 0 0 0 1.745-1.838 4 4 0 0 0 .548-.955 1.05 1.05 0 0 0 0-.957.75.75 0 0 0-.25-.275 3 3 0 0 0-.734-.307 5.8 5.8 0 0 0-2.314.062 17 17 0 0 0-3.587 1.136 24.7 24.7 0 0 0-5.047 2.892 15.3 15.3 0 0 0-2.395 2.159 6 6 0 0 0-.874 1.236c-.325.639-.32 1.1.008 1.43.198.184.441.31.705.367.67.145 1.362.157 2.037.035a17.4 17.4 0 0 0 4.786-1.544zm-7.776 2.538v.16c0 1.059.006 2.115 0 3.178a.97.97 0 0 0 .302.793c.215.173.469.289.74.338a6.1 6.1 0 0 0 2.428-.062c1.266-.255 2.5-.652 3.677-1.184a24.5 24.5 0 0 0 4.945-2.869 15.2 15.2 0 0 0 2.34-2.114q.481-.528.834-1.151c.174-.284.275-.608.291-.94v-3.335c0-.037-.005-.071-.008-.115-.022.024-.032.033-.04.044a12.5 12.5 0 0 1-1.824 1.985 23.6 23.6 0 0 1-4.456 3.109 22 22 0 0 1-4.842 2.008 7.13 7.13 0 0 1-4.388.153zm0 10.972v.163c0 1.05.008 2.096 0 3.15a.89.89 0 0 0 .349.842q.332.209.712.31c.823.15 1.67.125 2.482-.074 1.2-.246 2.37-.621 3.49-1.118a24.4 24.4 0 0 0 5.274-3.083 14.3 14.3 0 0 0 2.24-2.086q.455-.516.776-1.125c.152-.28.234-.594.237-.913-.007-1.078 0-2.16 0-3.241 0-.043 0-.085-.007-.136l-.048.059a11.7 11.7 0 0 1-1.428 1.614 22.5 22.5 0 0 1-4.262 3.142 25 25 0 0 1-3.44 1.674 16 16 0 0 1-3.734 1.028 4.9 4.9 0 0 1-2.59-.208c-.017-.005-.028 0-.052 0zm0-5.491v.163c0 1.05.009 2.095 0 3.15a.98.98 0 0 0 .348.858c.29.202.628.325.98.356.76.08 1.528.033 2.273-.139a18.8 18.8 0 0 0 4.343-1.522 24.6 24.6 0 0 0 3.92-2.334c.86-.614 1.657-1.31 2.382-2.08a7 7 0 0 0 1.007-1.333c.2-.329.306-.706.309-1.09-.011-1.057 0-2.124 0-3.187v-.156c-.106.14-.19.253-.276.363a14.4 14.4 0 0 1-2.256 2.25 25.2 25.2 0 0 1-5.154 3.235 20 20 0 0 1-3.706 1.376 6.86 6.86 0 0 1-4.171.088z"/></svg>
